X:32
T:Polonesse ur J H Anderssons notbok (Ma11 - 32)
R:Polska
O:Fjärås, Halland
B:J H Anderssons notbok
N:Nr 32 i Ma11.
N:Jmf. SvL Hälsingland nr 536. 
Z:Till abc Jonas Brunskog
M:3/4
L:1/8
K:D
A2 dc de|fe/f/ gf ed|cd ec A2|A2 dc de|fe/f/ gf ed|ce d2 D2:|
|:f.e/f/ gf ed|ef gf ed|cd ea ga|A2 dc de|fe/f/ gf ed|ce d2 D2:|

